!!!OTL: Jm Wald und auf der Haide. / Ein zweites mit anderer Weise.
!!!OTL-incipit: IM WALD UND AUF DER HAIDE
!!!COM: Volksweise
!!!ARE: Europa, Mitteleuropa, Deutschland
!!!SCT: F0658
!!!TXL: @@DE
!!!YEM: Copyright 1995, estate of Helmut Schaffrath.
**kern	**text
*ICvox	*
*clefG2	*
*M6/8	*
*k[]	*
*C:	*
!LO:TX:a:t=Munter und kräftig.	!
!LO:TX:a:t=P:only the highest voice encoded:problem	!
{8g	1._Jm
=1	=1
4g	Wald
8g	und
4g	auf
8g	der
=2	=2
(>4g	Hai-
8ee)	.
8cc/	-de,
8r}	.
{8cc/	da
=3	=3
4a	ſuch'
8a	ich
4a	mei-
8a	-ne
=4	=4
(>4a	Freu-
8ff)	.
8dd/	-de
8r}	.
{8cc/	als
=5	=5
4b/	fro-
8b/	-her
8b/L	Jä-
8ccJ	.
8dd/	-gers-
=6	=6
(4.ee/	-mann,
8ff/L)	.
8eeJ}	.
{8dd/	als
=7	=7
4cc/	fro-
8cc/	-her
8b/L	Jä-
8aJ	.
8b/	-gers-
=8	=8
4cc/	-mann.
8r	.
4r}	.
{16cc/	Val-
16dd/	-le-
=9	=9
4ee	-ri,
16ee	val-
16ee	-le-
4ee	-ra,
16ee	val-
16ee	-le-
=10	=10
[4.gg	-rum,
8ggL]	.
8ffJ}	.
{8ee	als
=11	=11
4dd	fro-
8dd	-her
8dd/L	Jä-
8ccJ	.
8dd/	-gers-
=12	=12
4ee/	-mann.
8r	.
4r}	.
{16cc/	Val-
16dd/	-le-
=13	=13
4ee	-ri,
16ee	val-
16ee	-le-
4ee	-ra,
16ee	val-
16ee	-le-
=14	=14
[4.gg	-rum,
8ggL]	.
8ffJ}	.
{8ee	als
=15	=15
4dd	fro-
8dd	-her
8dd/L	Jä-
8ccJ	.
8dd/	-gers-
=16	=16
4cc	-mann.
8r	.
4r}	.
==	==
!!!AGN: Staende -, Jaeger - Lied
!!!ONB: ESAC (Essen Associative Code) Database: FINK
!!!AMT: compound duple
!!!AIN: vox
!!!EED: Helmut Schaffrath
!!!EEV: 1.0
!!!RDF**kern: > = above
!!!GTL: Soldaten- und Jaegerlieder
!!Text: Volkslied
!!!source: Musikalischer Hausschatz der Deutschen. Eine Sammlung von über 1000 Liedern und Gesängen mit Singstimmen und Klavierbegleitung. Leipzig, Litterarisches Verlags-Haus.
!!!page: 432
!!!URL-scan: https://www.digitale-sammlungen.de/en/view/bsb11144622?page=399
!!!ENC: Anna Maria Matuszewska
!!!EEV: 2024/08/05
*-	*-
